bernoullicharts/1_1_x_even_parity__bits.svg

<?xml version="1.0" encoding="utf-8" standalone="no"?>
<!DOCTYPE svg PUBLIC "-//W3C//DTD SVG 1.1//EN"
  "http://www.w3.org/Graphics/SVG/1.1/DTD/svg11.dtd">
<!-- Created with matplotlib (https://matplotlib.org/) -->
<svg height="345.6pt" version="1.1" viewBox="0 0 460.8 345.6" width="460.8pt" xmlns="http://www.w3.org/2000/svg" xmlns:xlink="http://www.w3.org/1999/xlink">
 <defs>
  <style type="text/css">
*{stroke-linecap:butt;stroke-linejoin:round;}
  </style>
 </defs>
 <g id="figure_1">
  <g id="patch_1">
   <path d="M 0 345.6 
L 460.8 345.6 
L 460.8 0 
L 0 0 
z
" style="fill:#ffffff;"/>
  </g>
  <g id="axes_1">
   <g id="patch_2">
    <path d="M 57.6 307.584 
L 414.72 307.584 
L 414.72 41.472 
L 57.6 41.472 
z
" style="fill:#ffffff;"/>
   </g>
   <g id="matplotlib.axis_1">
    <g id="xtick_1">
     <g id="line2d_1">
      <defs>
       <path d="M 0 0 
L 0 3.5 
" id="m1aec957ddb" style="stroke:#000000;stroke-width:0.8;"/>
      </defs>
      <g>
       <use style="stroke:#000000;stroke-width:0.8;" x="73.799924" xlink:href="#m1aec957ddb" y="307.584"/>
      </g>
     </g>
     <g id="text_1">
      <text style="font-family:DejaVu Sans;font-size:10px;font-style:normal;font-weight:normal;text-anchor:middle;" transform="rotate(-0, 73.799924, 322.182437)" x="73.799924" y="322.182437">0.0</text>
     </g>
    </g>
    <g id="xtick_2">
     <g id="line2d_2">
      <g>
       <use style="stroke:#000000;stroke-width:0.8;" x="139.406515" xlink:href="#m1aec957ddb" y="307.584"/>
      </g>
     </g>
     <g id="text_2">
      <text style="font-family:DejaVu Sans;font-size:10px;font-style:normal;font-weight:normal;text-anchor:middle;" transform="rotate(-0, 139.406515, 322.182437)" x="139.406515" y="322.182437">0.2</text>
     </g>
    </g>
    <g id="xtick_3">
     <g id="line2d_3">
      <g>
       <use style="stroke:#000000;stroke-width:0.8;" x="205.013105" xlink:href="#m1aec957ddb" y="307.584"/>
      </g>
     </g>
     <g id="text_3">
      <text style="font-family:DejaVu Sans;font-size:10px;font-style:normal;font-weight:normal;text-anchor:middle;" transform="rotate(-0, 205.013105, 322.182437)" x="205.013105" y="322.182437">0.4</text>
     </g>
    </g>
    <g id="xtick_4">
     <g id="line2d_4">
      <g>
       <use style="stroke:#000000;stroke-width:0.8;" x="270.619696" xlink:href="#m1aec957ddb" y="307.584"/>
      </g>
     </g>
     <g id="text_4">
      <text style="font-family:DejaVu Sans;font-size:10px;font-style:normal;font-weight:normal;text-anchor:middle;" transform="rotate(-0, 270.619696, 322.182437)" x="270.619696" y="322.182437">0.6</text>
     </g>
    </g>
    <g id="xtick_5">
     <g id="line2d_5">
      <g>
       <use style="stroke:#000000;stroke-width:0.8;" x="336.226287" xlink:href="#m1aec957ddb" y="307.584"/>
      </g>
     </g>
     <g id="text_5">
      <text style="font-family:DejaVu Sans;font-size:10px;font-style:normal;font-weight:normal;text-anchor:middle;" transform="rotate(-0, 336.226287, 322.182437)" x="336.226287" y="322.182437">0.8</text>
     </g>
    </g>
    <g id="xtick_6">
     <g id="line2d_6">
      <g>
       <use style="stroke:#000000;stroke-width:0.8;" x="401.832878" xlink:href="#m1aec957ddb" y="307.584"/>
      </g>
     </g>
     <g id="text_6">
      <text style="font-family:DejaVu Sans;font-size:10px;font-style:normal;font-weight:normal;text-anchor:middle;" transform="rotate(-0, 401.832878, 322.182437)" x="401.832878" y="322.182437">1.0</text>
     </g>
    </g>
    <g id="text_7">
     <text style="font-family:DejaVu Sans;font-size:10px;font-style:normal;font-weight:normal;text-anchor:middle;" transform="rotate(-0, 236.16, 335.860562)" x="236.16" y="335.860562">Probability</text>
    </g>
   </g>
   <g id="matplotlib.axis_2">
    <g id="ytick_1">
     <g id="line2d_7">
      <defs>
       <path d="M 0 0 
L -3.5 0 
" id="m6c40c1163b" style="stroke:#000000;stroke-width:0.8;"/>
      </defs>
      <g>
       <use style="stroke:#000000;stroke-width:0.8;" x="57.6" xlink:href="#m6c40c1163b" y="297.888465"/>
      </g>
     </g>
     <g id="text_8">
      <text style="font-family:DejaVu Sans;font-size:10px;font-style:normal;font-weight:normal;text-anchor:end;" transform="rotate(-0, 50.6, 301.687683)" x="50.6" y="301.687683">0</text>
     </g>
    </g>
    <g id="ytick_2">
     <g id="line2d_8">
      <g>
       <use style="stroke:#000000;stroke-width:0.8;" x="57.6" xlink:href="#m6c40c1163b" y="267.394757"/>
      </g>
     </g>
     <g id="text_9">
      <text style="font-family:DejaVu Sans;font-size:10px;font-style:normal;font-weight:normal;text-anchor:end;" transform="rotate(-0, 50.6, 271.193976)" x="50.6" y="271.193976">25</text>
     </g>
    </g>
    <g id="ytick_3">
     <g id="line2d_9">
      <g>
       <use style="stroke:#000000;stroke-width:0.8;" x="57.6" xlink:href="#m6c40c1163b" y="236.901049"/>
      </g>
     </g>
     <g id="text_10">
      <text style="font-family:DejaVu Sans;font-size:10px;font-style:normal;font-weight:normal;text-anchor:end;" transform="rotate(-0, 50.6, 240.700268)" x="50.6" y="240.700268">50</text>
     </g>
    </g>
    <g id="ytick_4">
     <g id="line2d_10">
      <g>
       <use style="stroke:#000000;stroke-width:0.8;" x="57.6" xlink:href="#m6c40c1163b" y="206.407342"/>
      </g>
     </g>
     <g id="text_11">
      <text style="font-family:DejaVu Sans;font-size:10px;font-style:normal;font-weight:normal;text-anchor:end;" transform="rotate(-0, 50.6, 210.20656)" x="50.6" y="210.20656">75</text>
     </g>
    </g>
    <g id="ytick_5">
     <g id="line2d_11">
      <g>
       <use style="stroke:#000000;stroke-width:0.8;" x="57.6" xlink:href="#m6c40c1163b" y="175.913634"/>
      </g>
     </g>
     <g id="text_12">
      <text style="font-family:DejaVu Sans;font-size:10px;font-style:normal;font-weight:normal;text-anchor:end;" transform="rotate(-0, 50.6, 179.712853)" x="50.6" y="179.712853">100</text>
     </g>
    </g>
    <g id="ytick_6">
     <g id="line2d_12">
      <g>
       <use style="stroke:#000000;stroke-width:0.8;" x="57.6" xlink:href="#m6c40c1163b" y="145.419926"/>
      </g>
     </g>
     <g id="text_13">
      <text style="font-family:DejaVu Sans;font-size:10px;font-style:normal;font-weight:normal;text-anchor:end;" transform="rotate(-0, 50.6, 149.219145)" x="50.6" y="149.219145">125</text>
     </g>
    </g>
    <g id="ytick_7">
     <g id="line2d_13">
      <g>
       <use style="stroke:#000000;stroke-width:0.8;" x="57.6" xlink:href="#m6c40c1163b" y="114.926219"/>
      </g>
     </g>
     <g id="text_14">
      <text style="font-family:DejaVu Sans;font-size:10px;font-style:normal;font-weight:normal;text-anchor:end;" transform="rotate(-0, 50.6, 118.725438)" x="50.6" y="118.725438">150</text>
     </g>
    </g>
    <g id="ytick_8">
     <g id="line2d_14">
      <g>
       <use style="stroke:#000000;stroke-width:0.8;" x="57.6" xlink:href="#m6c40c1163b" y="84.432511"/>
      </g>
     </g>
     <g id="text_15">
      <text style="font-family:DejaVu Sans;font-size:10px;font-style:normal;font-weight:normal;text-anchor:end;" transform="rotate(-0, 50.6, 88.23173)" x="50.6" y="88.23173">175</text>
     </g>
    </g>
    <g id="ytick_9">
     <g id="line2d_15">
      <g>
       <use style="stroke:#000000;stroke-width:0.8;" x="57.6" xlink:href="#m6c40c1163b" y="53.938803"/>
      </g>
     </g>
     <g id="text_16">
      <text style="font-family:DejaVu Sans;font-size:10px;font-style:normal;font-weight:normal;text-anchor:end;" transform="rotate(-0, 50.6, 57.738022)" x="50.6" y="57.738022">200</text>
     </g>
    </g>
    <g id="text_17">
     <text style="font-family:DejaVu Sans;font-size:10px;font-style:normal;font-weight:normal;text-anchor:middle;" transform="rotate(-90, 25.432812, 174.528)" x="25.432812" y="174.528">Average Bits Consumed Per Call</text>
    </g>
   </g>
   <g id="line2d_16">
    <path clip-path="url(#p6c9b10146a)" d="M 73.832727 295.312356 
L 77.145529 295.358707 
L 80.45833 295.395299 
L 83.771132 295.451408 
L 87.083933 295.488 
L 90.396735 295.156228 
L 93.709536 295.473363 
L 97.022338 295.224534 
L 100.335139 295.192821 
L 103.647941 295.287961 
L 106.960742 295.280643 
L 110.273544 294.990343 
L 113.586345 295.000101 
L 116.899147 295.075725 
L 120.211948 295.009859 
L 123.52475 295.031814 
L 126.837551 295.080604 
L 130.150353 294.746393 
L 133.463154 295.019617 
L 136.775955 294.917158 
L 140.088757 295.075725 
L 143.401558 294.724438 
L 146.71436 294.670769 
L 150.027161 294.680527 
L 153.339963 294.56587 
L 156.652764 294.670769 
L 159.965566 294.646374 
L 163.278367 294.609781 
L 166.591169 294.246296 
L 169.90397 294.37559 
L 173.216772 294.341437 
L 176.529573 294.543915 
L 179.842375 294.312163 
L 183.155176 294.331679 
L 186.467978 293.782792 
L 189.780779 294.134079 
L 193.093581 294.121882 
L 196.406382 294.287768 
L 199.719184 293.931601 
L 203.031985 293.853537 
L 206.344787 293.497371 
L 209.657588 293.807187 
L 212.97039 293.916964 
L 216.283191 293.860856 
L 219.595993 293.531524 
L 222.908794 293.30709 
L 226.221596 293.494931 
L 229.534397 293.360759 
L 232.847199 293.524205 
L 236.16 293.287574 
L 239.472801 292.994834 
L 242.785603 292.806993 
L 246.098404 292.907013 
L 249.411206 292.946045 
L 252.724007 292.555725 
L 256.036809 292.750885 
L 259.34961 292.306896 
L 262.662412 291.936093 
L 265.975213 292.133692 
L 269.288015 291.718978 
L 272.600816 291.587245 
L 275.913618 291.101785 
L 279.226419 291.148136 
L 282.539221 290.989568 
L 285.852022 290.828561 
L 289.164824 290.935899 
L 292.477625 290.487032 
L 295.790427 290.20405 
L 299.103228 289.57466 
L 302.41603 289.516112 
L 305.728831 289.462443 
L 309.041633 289.291679 
L 312.354434 289.001379 
L 315.667236 288.545193 
L 318.980037 288.252453 
L 322.292839 287.776751 
L 325.60564 287.764554 
L 328.918442 286.976596 
L 332.231243 286.544805 
L 335.544045 285.798319 
L 338.856846 285.898339 
L 342.169647 284.205328 
L 345.482449 283.08072 
L 348.79525 284.161417 
L 352.108052 281.865851 
L 355.420853 281.131562 
L 358.733655 279.231195 
L 362.046456 277.069801 
L 365.359258 276.823411 
L 368.672059 272.998281 
L 371.984861 269.887923 
L 375.297662 266.792201 
L 378.610464 262.796306 
L 381.923265 258.2686 
L 385.236067 252.352821 
L 388.548868 241.819075 
L 391.86167 217.650982 
L 395.174471 171.015125 
L 398.487273 53.568 
" style="fill:none;stroke:#1f77b4;stroke-linecap:square;stroke-width:1.5;"/>
   </g>
   <g id="patch_3">
    <path d="M 57.6 307.584 
L 57.6 41.472 
" style="fill:none;stroke:#000000;stroke-linecap:square;stroke-linejoin:miter;stroke-width:0.8;"/>
   </g>
   <g id="patch_4">
    <path d="M 414.72 307.584 
L 414.72 41.472 
" style="fill:none;stroke:#000000;stroke-linecap:square;stroke-linejoin:miter;stroke-width:0.8;"/>
   </g>
   <g id="patch_5">
    <path d="M 57.6 307.584 
L 414.72 307.584 
" style="fill:none;stroke:#000000;stroke-linecap:square;stroke-linejoin:miter;stroke-width:0.8;"/>
   </g>
   <g id="patch_6">
    <path d="M 57.6 41.472 
L 414.72 41.472 
" style="fill:none;stroke:#000000;stroke-linecap:square;stroke-linejoin:miter;stroke-width:0.8;"/>
   </g>
   <g id="text_18">
    <text style="font-family:DejaVu Sans;font-size:12px;font-style:normal;font-weight:normal;text-anchor:middle;" transform="rotate(-0, 236.16, 35.472)" x="236.16" y="35.472">Avg. Bits Consumed by 1/(1+x) (Even Parity) Algorithm</text>
   </g>
   <g id="legend_1">
    <g id="patch_7">
     <path d="M 64.6 64.150125 
L 202.11875 64.150125 
Q 204.11875 64.150125 204.11875 62.150125 
L 204.11875 48.472 
Q 204.11875 46.472 202.11875 46.472 
L 64.6 46.472 
Q 62.6 46.472 62.6 48.472 
L 62.6 62.150125 
Q 62.6 64.150125 64.6 64.150125 
z
" style="fill:#ffffff;opacity:0.8;stroke:#cccccc;stroke-linejoin:miter;"/>
    </g>
    <g id="line2d_17">
     <path d="M 66.6 54.570438 
L 86.6 54.570438 
" style="fill:none;stroke:#1f77b4;stroke-linecap:square;stroke-width:1.5;"/>
    </g>
    <g id="line2d_18"/>
    <g id="text_19">
     <text style="font-family:DejaVu Sans;font-size:10px;font-style:normal;font-weight:normal;text-anchor:start;" transform="rotate(-0, 94.6, 58.070438)" x="94.6" y="58.070438">1/(1+x) (Even Parity)</text>
    </g>
   </g>
  </g>
 </g>
 <defs>
  <clipPath id="p6c9b10146a">
   <rect height="266.112" width="357.12" x="57.6" y="41.472"/>
  </clipPath>
 </defs>
</svg>

<svg height="460.8" viewBox="0 0 460.8 345.6" width="614.4" xmlns="http://www.w3.org/2000/svg" xmlns:xlink="http://www.w3.org/1999/xlink"><defs><style>*{stroke-linecap:butt;stroke-linejoin:round}</style></defs><g id="figure_1"><path d="M0 345.6h460.8V0H0z" fill="#fff" id="patch_1"/><g id="axes_1"><path d="M57.6 307.584h357.12V41.472H57.6z" fill="#fff" id="patch_2"/><g id="matplotlib.axis_1"><g id="xtick_1"><g id="line2d_1"><defs><path d="M0 0v3.5" id="m1aec957ddb" stroke="#000" stroke-width=".8"/></defs><use x="73.8" xlink:href="#m1aec957ddb" y="307.584" stroke="#000" stroke-width=".8"/></g><text x="73.8" y="322.182" font-family="DejaVu Sans" font-size="10" font-weight="400" text-anchor="middle" id="text_1">0.0</text></g><g id="xtick_2"><use x="139.407" xlink:href="#m1aec957ddb" y="307.584" stroke="#000" stroke-width=".8" id="line2d_2"/><text x="139.407" y="322.182" font-family="DejaVu Sans" font-size="10" font-weight="400" text-anchor="middle" id="text_2">0.2</text></g><g id="xtick_3"><use x="205.013" xlink:href="#m1aec957ddb" y="307.584" stroke="#000" stroke-width=".8" id="line2d_3"/><text x="205.013" y="322.182" font-family="DejaVu Sans" font-size="10" font-weight="400" text-anchor="middle" id="text_3">0.4</text></g><g id="xtick_4"><use x="270.62" xlink:href="#m1aec957ddb" y="307.584" stroke="#000" stroke-width=".8" id="line2d_4"/><text x="270.62" y="322.182" font-family="DejaVu Sans" font-size="10" font-weight="400" text-anchor="middle" id="text_4">0.6</text></g><g id="xtick_5"><use x="336.226" xlink:href="#m1aec957ddb" y="307.584" stroke="#000" stroke-width=".8" id="line2d_5"/><text x="336.226" y="322.182" font-family="DejaVu Sans" font-size="10" font-weight="400" text-anchor="middle" id="text_5">0.8</text></g><g id="xtick_6"><use x="401.833" xlink:href="#m1aec957ddb" y="307.584" stroke="#000" stroke-width=".8" id="line2d_6"/><text x="401.833" y="322.182" font-family="DejaVu Sans" font-size="10" font-weight="400" text-anchor="middle" id="text_6">1.0</text></g><text x="236.16" y="335.861" font-family="DejaVu Sans" font-size="10" font-weight="400" text-anchor="middle" id="text_7">Probability</text></g><g id="matplotlib.axis_2"><g id="ytick_1"><g id="line2d_7"><defs><path d="M0 0h-3.5" id="m6c40c1163b" stroke="#000" stroke-width=".8"/></defs><use x="57.6" xlink:href="#m6c40c1163b" y="297.888" stroke="#000" stroke-width=".8"/></g><text x="50.6" y="301.688" font-family="DejaVu Sans" font-size="10" font-weight="400" text-anchor="end" id="text_8">0</text></g><g id="ytick_2"><use x="57.6" xlink:href="#m6c40c1163b" y="267.395" stroke="#000" stroke-width=".8" id="line2d_8"/><text x="50.6" y="271.194" font-family="DejaVu Sans" font-size="10" font-weight="400" text-anchor="end" id="text_9">25</text></g><g id="ytick_3"><use x="57.6" xlink:href="#m6c40c1163b" y="236.901" stroke="#000" stroke-width=".8" id="line2d_9"/><text x="50.6" y="240.7" font-family="DejaVu Sans" font-size="10" font-weight="400" text-anchor="end" id="text_10">50</text></g><g id="ytick_4"><use x="57.6" xlink:href="#m6c40c1163b" y="206.407" stroke="#000" stroke-width=".8" id="line2d_10"/><text x="50.6" y="210.207" font-family="DejaVu Sans" font-size="10" font-weight="400" text-anchor="end" id="text_11">75</text></g><g id="ytick_5"><use x="57.6" xlink:href="#m6c40c1163b" y="175.914" stroke="#000" stroke-width=".8" id="line2d_11"/><text x="50.6" y="179.713" font-family="DejaVu Sans" font-size="10" font-weight="400" text-anchor="end" id="text_12">100</text></g><g id="ytick_6"><use x="57.6" xlink:href="#m6c40c1163b" y="145.42" stroke="#000" stroke-width=".8" id="line2d_12"/><text x="50.6" y="149.219" font-family="DejaVu Sans" font-size="10" font-weight="400" text-anchor="end" id="text_13">125</text></g><g id="ytick_7"><use x="57.6" xlink:href="#m6c40c1163b" y="114.926" stroke="#000" stroke-width=".8" id="line2d_13"/><text x="50.6" y="118.725" font-family="DejaVu Sans" font-size="10" font-weight="400" text-anchor="end" id="text_14">150</text></g><g id="ytick_8"><use x="57.6" xlink:href="#m6c40c1163b" y="84.433" stroke="#000" stroke-width=".8" id="line2d_14"/><text x="50.6" y="88.232" font-family="DejaVu Sans" font-size="10" font-weight="400" text-anchor="end" id="text_15">175</text></g><g id="ytick_9"><use x="57.6" xlink:href="#m6c40c1163b" y="53.939" stroke="#000" stroke-width=".8" id="line2d_15"/><text x="50.6" y="57.738" font-family="DejaVu Sans" font-size="10" font-weight="400" text-anchor="end" id="text_16">200</text></g><text transform="rotate(-90 25.433 174.528)" x="25.433" y="174.528" font-family="DejaVu Sans" font-size="10" font-weight="400" text-anchor="middle" id="text_17">Average Bits Consumed Per Call</text></g><path clip-path="url(#p6c9b10146a)" d="M73.833 295.312l3.313.047 3.312.036 3.313.056 3.313.037 3.313-.332 3.313.317 3.312-.248 3.313-.032 3.313.095 3.313-.007 3.313-.29 3.312.01 3.313.075 3.313-.066 3.313.022 3.313.049 3.312-.335 3.313.274 3.313-.103 3.313.159 3.313-.352 3.312-.053 3.313.01 3.313-.115 3.313.105 3.313-.025 3.312-.036 3.313-.364 3.313.13 3.313-.035 3.313.203 3.312-.232 3.313.02 3.313-.55 3.313.352 3.313-.012 3.312.166 3.313-.356 3.313-.078 3.313-.357 3.313.31 3.312.11 3.313-.056 3.313-.33 3.313-.224 3.313.188 3.312-.134 3.313.163 3.313-.236 3.313-.293 3.313-.188 3.312.1 3.313.039 3.313-.39 3.313.195 3.313-.444 3.312-.37 3.313.197 3.313-.415 3.313-.132 3.313-.485 3.312.046 3.313-.158 3.313-.161 3.313.107 3.313-.449 3.312-.283 3.313-.63 3.313-.058 3.313-.054 3.313-.17 3.312-.29 3.313-.457 3.313-.293 3.313-.475 3.313-.012 3.312-.788 3.313-.432 3.313-.747 3.313.1 3.313-1.693 3.312-1.124 3.313 1.08 3.313-2.295 3.313-.734 3.313-1.9 3.312-2.162 3.313-.247 3.313-3.825 3.313-3.11 3.313-3.096 3.312-3.996 3.313-4.527 3.313-5.916 3.313-10.534 3.313-24.168 3.312-46.636 3.313-117.447" fill="none" stroke="#1f77b4" stroke-linecap="square" stroke-width="1.5" id="line2d_16"/><path d="M57.6 307.584V41.472" fill="none" stroke="#000" stroke-linecap="square" stroke-width=".8" id="patch_3"/><path d="M414.72 307.584V41.472" fill="none" stroke="#000" stroke-linecap="square" stroke-width=".8" id="patch_4"/><path d="M57.6 307.584h357.12" fill="none" stroke="#000" stroke-linecap="square" stroke-width=".8" id="patch_5"/><path d="M57.6 41.472h357.12" fill="none" stroke="#000" stroke-linecap="square" stroke-width=".8" id="patch_6"/><text x="236.16" y="35.472" font-family="DejaVu Sans" font-size="12" font-weight="400" text-anchor="middle" id="text_18">Avg. Bits Consumed by 1/(1+x) (Even Parity) Algorithm</text><g id="legend_1"><path d="M64.6 64.15h137.519q2 0 2-2V48.472q0-2-2-2H64.6q-2 0-2 2V62.15q0 2 2 2z" fill="#fff" opacity=".8" stroke="#ccc" id="patch_7"/><path d="M66.6 54.57h20" fill="none" stroke="#1f77b4" stroke-linecap="square" stroke-width="1.5" id="line2d_17"/><text x="94.6" y="58.07" font-family="DejaVu Sans" font-size="10" font-weight="400" id="text_19">1/(1+x) (Even Parity)</text></g></g></g><defs><clipPath id="p6c9b10146a"><path d="M57.6 41.472h357.12v266.112H57.6z"/></clipPath></defs></svg>
